X:9585
T:Life Let Us Cherrish. BF13.092
M:6/8
L:1/8
Q:120
S:J.Lishman(?)MS,c1825,Lakes,Browne Coll.
R:Jig
O:England
A:Lakes
N:There is a pause written directly over the double bar between the A and
N:B music.  The DC is written below the stave
Z:vmp.Cherri Graebe.
K:G major
z|B3cBc|d2gg2z|G3AGA|BcBA2z|!
B3cBc|d2gg2z|B3AGA|G3G2:|!
|:d|d2c ABc|d2BG2d|d2c ABc|d2BG2d|!
e2cg2g|d2Bg2g|ded dcB|B3"DC"A2:|]


